X:2620
L:1/8
Q:3/8=120
M:6/8
K:D
S A | d2 e f2 e | d3- d2 A | BGB AFA | BGB A2 A | d2 e f2 e | d3- d2 a | bag{f} ede | 
 d3- d2!fine! |"_NB" A/G/ | F2 A d2 A | f2 d e2 c | d2 B A2 ^G | A2 =G FAG | F2 A d2 A | 
 f2 d e2 c | d2 B A2 ^G | A3 A2!D.S.! || A | e3 efe | d3 def | g3 gag | f3 f2 A | e3 efe | 
 d3 d2 f | efe dcB | A3 A2!D.S.!!D.C.! |]

